icon-themes/sifr_svg/cmd/sc_usewizards.svg

<svg viewBox="0 0 16 16" xmlns="http://www.w3.org/2000/svg"><g fill="#555753"><path d="m4.5 2-.5 2-2 .5 2 .5.5 2 .5-2 2-.5-2-.5zm2.5 4-1 1 7 7 1-1zm-2 5v4h4v-4z"/><path d="m1 11v4h4v-4z" opacity=".35"/></g></svg>

<svg xmlns="http://www.w3.org/2000/svg" viewBox="0 0 16 16">
  <path
     style="fill:#555753"
     d="M 4.5 2 L 4 4 L 2 4.5 L 4 5 L 4.5 7 L 5 5 L 7 4.5 L 5 4 L 4.5 2 z M 7 6 L 6 7 L 13 14 L 14 13 L 7 6 z M 5 11 L 5 15 L 9 15 L 9 11 L 5 11 z "
     />
  <path
     style="opacity:0.35;fill:#555753"
     d="M 1 11 L 1 15 L 5 15 L 5 11 L 1 11 z "
     />
</svg>
